X:1
T:James Gibb editions
T:I vaghi fiori - Palestrina
T:#
%%score [ 1 2 3 4 ]
L:1/8
Q:1/4=120
M:4/4
K:D
V:1 treble nm="Soprano" snm="S"
V:2 treble nm="Alto" snm="A"
V:3 treble-8 nm="Tenor" snm="T"
V:4 bass nm="Bass" snm="B"
V:1
"^I vaghi fiori""^Giovanni Pierluigi da Palestrina\n(1525-94)" A4 B2 c2 | d2 d2 c3 c | B2 B2 (A4- | %3
w: I va- ghi|fio- ri~~e l'a- mo-|ro- se fron\-|
 A2 GF G4) | F4 z4 | z4 z2 A2 |[M:4/4] B2 c2 d2 d2 | c3 B A2 G2 | F4 E2 E2- | E2 A4 F2 | d8 | %11
w: |de,|i|va- ghi fio- ri~~e|l'a- mo- ro- se|fron- de e|* l'er- ba~~e|l'a-|
 d4 c2 e2 | d2 c2 B4 | c4 z4 | z4 A4 | F2 D2 E2 E2 | F4 E4 | z2 A2 (FGAB | c2) d4 c2 | %19
w: ria~~al- trui di-|let- to dan-|no.|Por-|gon ri- po- so|gli~~an- tri|e pia\- * * *|* cer l'on-|
 d2 A2 A2 A2 | G4 F4- | F4 z4 | z4 z2 A2 | A2 A2 d2 d2 | c2 c2 (B2 AG | F2) A4 ^G2 | A2 F2 F2 G2 | %27
w: de, e pia- cer|l'on- de,||le-|van- no l'ar- me~~e|gl'ar- chi~~o- gn'a\- * *|* spro~~af- fan-|no. L'om- bra so-|
 E4 D2 d2- | d2 c2 B2 B2 | A8 | F4 z2 A2 | (FEFG AGFE | D8 | G8 | E4 E4 | E8 | D4 GABc | d2 c2 B4 | %38
w: a- ve~~al cor|* dol- cezz' in-|fon-|de; fug-|gir * * * * * * *||le|gra- vi~~an-|go-|sce l'au\- * * *|* re fan-|
 A4 z4 | B6 A2 | F4 A3 A | A2 A2 G2 F2 | G4 F3 G | A8) | z8 | B6 A2 | F4 A3 A | A2 A2 G2 F2 | G8 | %49
w: no.|Las- so|me! che mia|vi- ta non re-|stau- ra, *|||las- so|me! che mia|vi- ta non re-|stau-|
 F4 z4 | A4 B2 c2 | d2 d2 c2 c2 | B2 B2 (A4- | A2 GF G4) | F4 z4 | z4 z2 A2 | B2 c2 d2 d2 | %57
w: ra|fior, frond', erb',|a- ri'antr', ond', arm',|arch', omb', au\-||ra,|fior,|frond', erb', a- ri'antr',|
 c4 B2 A2 |[Q:1/4=118] A4[Q:1/4=115] (G3[Q:1/4=114] F | %59
w: ond', arm', arch',|omb', au\- *|
[Q:1/4=112] E2[Q:1/4=110] D4[Q:1/4=108] C2) |[Q:1/4=104] !fermata!D8 |] %61
w: |ra.|
V:2
 z8 | D4 E2 F2 | G2 G2 F3 F | E2 F4 E2 | F4 z2 A,2 | D2 E2 F4- |[M:4/4] F2 E2 D2 B,2 | E4 C4 | %8
w: |I va- ghi|fio- ri~~e l'a- mo-|ro- se fron-|de, i|va- ghi fio\-|* ri~~e l'a- mo-|ro- se|
 D4 C4- | C4 z2 A,2- | A,2 D4 B,2 | B2 B2 A2 A2 | F2 A2 ^G4 | A8 | z4 E4 | D2 B,2 C2 C2 | D4 C4 | %17
w: fron- de|* e|* l'er- ba~~e|l'a- ria~~al- trui di-|let- to dan-|no.|Por-|gon ri- po- so|gli~~an tri|
 z2 A,2 (DEFG | A2) F2 E4 | F4 E2 D2 | E4 A4 | z8 | z4 z2 D2 | D2 D2 F2 G2 | A2 A,2 D4- | %25
w: e pia\- * * *|* cer l'on-|de,~~e pia- cer|l'on- de,||le-|van- no l'ar- me~~e|gl'ar- chi~~o- gn'a\-|
 D2 D2 B,4 | A,2 D2 D2 D2 | =C4 B,2 B2- | B2 A2 F2 G2 | F4 E4 | z2 A2 (FEFG | AGFE D4- | %32
w: * spro~~af- fan-|no. L'om- bra so-|a- ve~~al cor|* dol- cezz' in-|fon- de;|fug- gir * * *||
 D2 G,2 B,4- | B,4 B,4 | =C8- | C8 | B,2 G,A, B,CDE | F^G A2) A2 G2 | A4 z4 | D6 D2 | D4 F3 F | %41
w: * le gra\-|* vi~~an-|go\-||sce l'au\- * * * * *|* * * re fan-|no.|Las- so|me! che mia|
 F2 E2 E2 ^D2 | E4 C4 | z2 D4 C2 | E4 z2 F2- | F2 E2 C4 | D3 D D2 D2 | C4 B,4- | B,4 E4 | %49
w: vi- ta non re-|stau- ra,|las- so|me! las\-|* so me!|che mia vi- ta|non re\-|* stau-|
 C2 A,2 B,2 C2 | D2 C2 z4 | z2 D2 E2 F2 | G2 G2 F2 F2 | E2 F4 E2 | F4 z2 A,2 | D2 E2 F4- | %56
w: ra fior, frond', erb',|a- ria,|fior, frond', erb',|a- ri'antr', ond', arch',|omb', au- ra,|fior, frond',|erb', a- ri'antr',|
 F2 E2 D2 B,2 | E4 E4 | F4 E2 D2 | =C2 A,2 A,4 | !fermata!A,8 |] %61
w: * ond', fior, frond',|erb', a-|ri'antr', ond', arm',|arch', omb', au-|ra.|
V:3
 z8 | z8 | z8 | A4 B2 c2 | d2 d2 c3 c | B2 B2 (A3 G |[M:4/4][K:treble-8] FD A4 ^G2) | A8 | D4 A4- | %9
w: |||I va- ghi|fio- ri~~e l'a- mo-|ro- se fron\- *||de|e l'er\-|
 A4 F4 | f8 | g4 e4 | z4 e4 | c2 e2 d2 c2 | B4 c4 | z4 A4 | F2 D2 E2 E2 | F4 F4 | z4 z2 A2 | %19
w: * ba~~e|l'a-|ria~~al- trui,|al-|trui di- let- to|dan- no.|Por-|gon ri- po- so|gli~~an- tri|e|
 (FGAB c2) d2 | (d2 c2) d2 A2 | A2 A2 d2 d2 | c2 c2 (B2 AG | F2) F2 D4 | E2 F2 (G2 FE | D2) D2 E4 | %26
w: pia\- * * * * cer|l'on\- * de, le-|van- no l'ar- me~~e|gl'ar- chi~~o- gn'a\- * *|* spro~~af- fan-|no, o- gn'a\- * *|* spro~~af- fan-|
 F2 A2 B2 B2 | G4 G4 | B2 c2 ^d2 (e2- | e=d d4) c2 | d8 | z4 z2 d2 | (BABc dcBA | G4) E4 | G4 A4 | %35
w: no. L'om- bra so-|a- ve~~al|cor dol- cezz' in\-|* * * fon-|de;|fug-|gir * * * * * * *|* le|gra- vi~~an-|
 G4 G4 | (GABc d3 c | B2 A2 e4 | A4 z4 | G6 F2 | A4 d3 d | d2 c2 B2 B2 | E4 F4 | z2 f4 e2 | %44
w: go- sce|l'au\- * * * * *|* re fan-|no.|Las- so|me! che mia|vi- ta non re-|stau- ra,|las- so|
 c4 d3 d | d2 B2 f4- | f2 d2 f4 | e4 e2 f2 | e3 d c2 B2) | A2 c2 d2 e2 | f2 f2 e4 | d4 z4 | z8 | %53
w: me! che mia|vi- ta non|* re- stau-|ra, non re-|stau\- * * *|ra fior, frond', erb',|a- ria, antr',|ond',||
 A4 B2 c2 | d2 d2 c2 c2 | B2 B2 (A3 G | FD A4 ^G2) | A2 A2 B2 c2 | d2 d2 B2 B2 | G2 F2 E4 | %60
w: fior, frond', erb',|a- ri'antr', ond', arm',|arch', omb', au\- *||ra, fior, frond', erb',|a- ri'antr', ond', arm',|arch', omb', au-|
 !fermata!F8 |] %61
w: ra.|
V:4
 z8 | z8 | z8 | z8 | D,4 E,2 F,2 | G,2 G,2 F,3 E, |[M:4/4] D,2 C,2 B,,4 | A,,8 | z8 | A,,4 D,4- | %10
w: ||||I va- ghi|fio- ri~~e l'a- mo-|ro- se fron-|de||e l'er-|
 D,2 B,,2 B,4 | G,4 A,4 | z4 E,4 | A,2 A,2 F,2 A,2 | ^G,4 A,4 | z4 A,,4 | D,2 B,,2 C,2 C,2 | %17
w: * ba~~e l'a-|ria~~al- trui,|al-|trui di- let- to|dan- no.|Por-|gon ri- po- so|
 D,4 D,4 | z4 A,,4 | (D,E,F,G, A,2) F,2 | E,4 D,2 D,2 | D,2 D,2 F,2 G,2 | A,2 A,,2 D,4- | %23
w: gli~~an- tri|e|pia\- * * * * cer|l'on- de, le-|van- no l'ar- me~~e|gl'ar- chi~~o gn'a|
 D,2 D,2 B,,4 | A,,4 z4 | z8 | D,4 B,,2 B,,2 | =C,4 G,,4 | G,2 A,2 B,2 E,2 | (F,3 G, A,4) | D,8- | %31
w: * spro~~af- fan-|no.||L'om- bra so-|a- ve~~al|cor dol- cezz' in-|fon\- * *|de;|
 D,8 | z4 z2 G,2 | (E,D,E,F, G,F,E,D, | =C,2) C,2 A,,2 A,,2 | =C,8 | G,,8 | z8 | z8 | G,,6 D,2 | %40
w: |fug-|gir * * * * * * *|* le gra- vi~~an-|go-|sce|||Las- so|
 D,8 | z8 | z2 B,4 A,2 | F,4 A,3 A, | A,2 A,2 G,2 F,2 | G,4 F,4 | D,3 D, D,2 D,2 | %47
w: me!||las- so|me! che mia|vi- ta non re-|stau- ra,|che mia vi- ta|
 (A,,B,,C,D, E,2) ^D,2 | E,8 | F,4 z4 | F,4 G,2 A,2 | B,2 B,2 A,4 | G,4 D,4 | z8 | D,4 E,2 F,2 | %55
w: non * * * * re-|stau-|ra|fior, frond', erb',|a- ria, antr',|ond', arm',||fior, frond', erb',|
 G,2 G,2 F,2 F,2 | D,2 C,2 B,,4 | A,,2 A,2 ^G,2 A,2 | D,2 D,2 E,2 B,,2 | =C,2 D,2 A,,4 | %60
w: a- ri'antr', ond', arm',|arch', omb', au-|ra, fior, frond', erb',|a- ri'antr', ond', arm',|arch', omb', au-|
 !fermata!D,8 |] %61
w: ra.|

